svgs/regular/brackets-round.svg

<svg xmlns="http://www.w3.org/2000/svg" viewBox="0 0 512 512"><!-- Font Awesome Pro 6.0.0-alpha2 by @fontawesome - https://fontawesome.com License - https://fontawesome.com/license (Commercial License) --><path d="M148.281 76.623C159.656 69.81 163.406 55.091 156.625 43.716C149.844 32.372 135.125 28.591 123.719 35.372C118.688 38.373 0 110.686 0 255.999S118.688 473.626 123.719 476.626C127.562 478.907 131.781 480.001 135.937 480.001C144.094 480.001 152.062 475.813 156.562 468.313C163.344 456.969 159.656 442.25 148.344 435.407C144.25 432.938 48 373.5 48 255.999C48 138.873 143.656 79.435 148.281 76.623ZM388.281 35.372C376.906 28.591 362.25 32.372 355.438 43.685C348.656 55.029 352.344 69.748 363.656 76.592C367.75 79.06 464 138.498 464 255.999S367.75 432.938 363.719 435.375C352.344 442.157 348.594 456.876 355.375 468.282C359.875 475.813 367.844 480.001 376.031 480.001C380.187 480.001 384.437 478.907 388.281 476.626C393.312 473.626 512 401.313 512 255.999S393.312 38.373 388.281 35.372Z"/></svg>

<svg xmlns="http://www.w3.org/2000/svg" viewBox="0 0 512 512"><!--! Font Awesome Pro 6.3.0 by @fontawesome - https://fontawesome.com License - https://fontawesome.com/license (Commercial License) Copyright 2023 Fonticons, Inc. --><path d="M148.3 76.6c11.4-6.8 15.1-21.5 8.3-32.9s-21.5-15.1-32.9-8.3C82 60.2 0 137.9 0 256S82 451.8 123.7 476.6c11.4 6.8 26.1 3 32.9-8.3s3-26.1-8.3-32.9C115.3 415.7 48 351.3 48 256s67.3-159.7 100.3-179.4zm215.4 0C396.7 96.3 464 160.7 464 256s-67.3 159.7-100.3 179.4c-11.4 6.8-15.1 21.5-8.3 32.9s21.5 15.1 32.9 8.3C430 451.8 512 374.1 512 256s-82-195.8-123.7-220.6c-11.4-6.8-26.1-3-32.9 8.3s-3 26.1 8.3 32.9z"/></svg>
